X:664
T: "Der Kehraus"
N: Z1345
O: Europa, Mitteleuropa, Deutschland, Boehmen
R: Zech -, Schalks - Lied
M: 3/4
L: 1/8
K: Bb
 | Bcd2d2 | d2f3
d | dce3c | edgff2 |
Bcd2d2 | d2f3
d | dce3f | d2z4 |
c2d2e2 | edgff2 |
c2d2e2 | edgff2 |
Bcd2d2 | d2f3
d | dce3c | edgff2 |
Bcd2d2 | d2f3
d | dce3f | d2z4

@@@ Tune index: 10422
